X: 1
T: Bingsj\"opolska efter Nylandspojkarna
O:
R: Bingsj\"opolska, 16th-note polska
Z: John Chambers <jc@trillian.mit.edu>
M: 3/4
L: 1/16
K: A
|: "A"A2Ac e-ce-g {g}b2a2 | "D"a-baf d2f-a "E7"g2b2 \
| "D"d2fd "A"c2ec "E7"B2dB |1,3 EGBG "A"A2BA E2CE :|2,4 "E7"EGBG "A"A8 :|
|| "D"A-df-d A-df-d A-df-d | "A"A-ce-c A-ce-c A-ce-c \
| "D"A-df-d A-df-d A-df-d | "A"A-ce-c A-ce-c A-ce-c |
| "A"E3E A2A2 "E7"B2B2 | d2d2 "A"c-Bce a4 \
| "E7"e-fed c-dcB A-BA-G | G2A2 "A"A8 ||
|| "D"A,-DF-D A,-DF-D A,-DF-D | "A"A,-CE-C A,-CE-CC A,-CE-C \
| "D"A,-DF-D A,-DF-D A,-DF-D | "A"A,-CE-C A,-CE-CC A,-CE-C |
| "A"E3E A2A2 "E7"B2B2 | d2d2 "A"c-Bce a4 \
| "E7"e-fed c-dcB A-BA-G | G2A2 "A"A8 |]

%%sep 1 1 500

